X:1

T:Devil in Dublin, The [2]

M:6/8

L:1/8

R:Jig or March

S:O’Neill – Music of Ireland (1903), No. 1827

Z:AK/Fiddler’s Companion

K:G

G2B d2B | e2c A3 | BdB GBG | FAF D3 | G2B d2B | e2c ABc |

dBG EAF | G3 G2 z || AGA FGA | BAB GAB | {d}cBc ABc |

dge d2B | cde ABc | Bcd GAB | {d}cAF DEF | G3 G2 z ||

 

DEVIL IN DUBLIN [3], THE. AKA and see “Devils in Dublin.” Irish, Reel.

 

DEVIL IN GEORGIA [1], THE. AKA and see "Temperance Reel," "Teetotaler(‘s Reel)." Old‑Time, Breakdown. USA; eastern Ky., West Virginia. Doc Robert's cover title for "Temperence Reel." Charles Wolfe believes the tune to bear some resemblance to a familiar Kentucky tune called "Stoney Point" or "Buck Creek Gals," but others dispute this saying "Devil in Georgia" is not in fact in that tune family. Cassette C-7625, Wilson Douglas - "Back Porch Symphony." County 412, "Fiddling Doc Roberts" (1983). Gennett 6942 (78 RPM), Doc Roberts.

 

DEVIL IN GEORGIA [2], THE. Old-Time. A member of the tune family which includes “Damon’s Window/Winder,” “Grand Hornpipe [1],” “Mud Fence,” “Railroad(ing) Through the Rocky Mountains,” “Ride the Goat Over the Mountains,” "Rocky Mountain Goat,” “Swiss Chalet."

 

DEVIL IN IRELAND, THE.  English, Jig. G Major. Standard tuning. AABB. Original key ‘C’ major, as “The Divel in Ireland” in Gibbons’ manuscript. Source for notated version: the 1823-26 music mss of papermaker and musician Joshua Gibbons (1778-1871, of Tealby, near Market Rasen, Lincolnshire Wolds) [Sumner]. Sumner (Lincolnshire Collections, vol. 1: The Joshua Gibbons Manuscript), 1997; pg. 5.

